X: 4107
T: The JOLLY BEGGAR
R: Strathspey.
%R: strathspey
B: James Kerr "Merry Melodies" v.4 p.14 #107
Z: 2016 John Chambers <jc:trillian.mit.edu>
M: C
L: 1/8
K: G
uD |\
G>AB>c d<B A>B | G<g g>a f2 e>d |\
g>ba>g e>fg>e |[1 d<B G>B A3 :|[2 d<B B>A G3 |]
|: B |\
e>fg>e f>^dB>B | e>fg>e f3d |\
g>ba>g e>fg>e |[1 d<B G>B A3 :|[2 d<B A>B G3 |]

%%sep 1 1 500
%%sep 1 1 500

